X:1504
L:1/8
Q:3/8=110
M:6/8
K:D
 F2 A G2 B | ABc d3 | F2 A G2 B | AFD E3 | F2 A G2 B | ABc d3 | f2 d g2 f | edc d3 :: faf def | 
 gbg efg | faf def | ecA Ace | faf def | gbg efg | fed g2 f | edc d2 z :|

